public/assets/icons/folder.svg

<svg viewBox="0 0 60 49" xmlns="http://www.w3.org/2000/svg"><path d="m57.49 16h-3.49v-6.268c0-1.507-1.226-2.732-2.732-2.732h-24.753l-5-7h-18.783c-1.506 0-2.732 1.226-2.732 2.732v43.687h.006c-.005.563.17 1.114.522 1.575.49.64 1.232 1.006 2.037 1.006h44.759c1.156 0 2.174-.779 2.45-1.813l10.226-28.038v-.177c0-1.722-1.056-2.972-2.51-2.972zm-55.49-13.268c0-.404.329-.732.732-.732h17.753l5 7h25.782c.404 0 .732.328.732.732v6.268h-39.268c-.144 0-.287.012-.426.036-.973.163-1.782.873-2.023 1.776l-8.282 22.587zm45.869 43.851c-.066.245-.291.417-.545.417h-44.759c-.243 0-.385-.139-.448-.222-.063-.082-.16-.256-.123-.408l10.191-27.953c.066-.245.291-.417.545-.417h41.27 3.49c.38 0 .477.546.502.819z" fill="#707070"/></svg>

<?xml version="1.0" encoding="utf-8"?>
<svg version="1.1" x="0px" y="0px" viewBox="0 0 60 49" xmlns="http://www.w3.org/2000/svg">
  <path d="M 57.49 16 L 54 16 L 54 9.732 C 54 8.225 52.774 7 51.268 7 L 26.515 7 L 21.515 0 L 2.732 0 C 1.226 0 0 1.226 0 2.732 L 0 46.419 L 0.006 46.419 C 0.001 46.982 0.176 47.533 0.528 47.994 C 1.018 48.634 1.76 49 2.565 49 L 47.324 49 C 48.48 49 49.498 48.221 49.774 47.187 L 60 19.149 L 60 18.972 C 60 17.25 58.944 16 57.49 16 Z M 2 2.732 C 2 2.328 2.329 2 2.732 2 L 20.485 2 L 25.485 9 L 51.267 9 C 51.671 9 51.999 9.328 51.999 9.732 L 51.999 16 L 12.731 16 C 12.587 16 12.444 16.012 12.305 16.036 C 11.332 16.199 10.523 16.909 10.282 17.812 L 2 40.399 L 2 2.732 Z M 47.869 46.583 C 47.803 46.828 47.578 47 47.324 47 L 2.565 47 C 2.322 47 2.18 46.861 2.117 46.778 C 2.054 46.696 1.957 46.522 1.994 46.37 L 12.185 18.417 C 12.251 18.172 12.476 18 12.73 18 L 54 18 L 57.49 18 C 57.87 18 57.967 18.546 57.992 18.819 L 47.869 46.583 Z" style="fill: rgb(112, 112, 112);"/>
</svg>
